static/logos/surveymonkey-glyph-color.svg

<svg width="50" height="35" viewBox="0 0 50 35" fill="none" xmlns="http://www.w3.org/2000/svg">
<g clip-path="url(#clip0_1_843)">
<path d="M44.1003 19.9003C43.6241 19.902 43.1498 19.9608 42.6876 20.0755C41.8264 16.6891 40.0092 13.622 37.4528 11.24C34.8964 8.858 31.7087 7.26174 28.27 6.64165C27.9555 6.5855 27.6725 6.54282 27.3513 6.50239C27.4052 4.78189 27.4838 2.79411 30.0152 1.00623L29.6154 -0.0022583C29.6154 -0.0022583 24.674 1.52957 24.1147 5.74995C23.8699 4.60221 21.5699 3.16472 20.4311 2.89294L19.8651 3.80709C19.8651 3.80709 21.3745 4.56178 21.7429 6.64389C18.3044 7.26196 15.1162 8.85602 12.5587 11.236C10.0011 13.6159 8.18206 16.6813 7.31853 20.0665C6.41615 19.8431 5.47381 19.8359 4.56812 20.0454C3.66244 20.2549 2.81898 20.6752 2.10634 21.2721C1.39369 21.869 0.831978 22.6257 0.466873 23.4806C0.101768 24.3355 -0.056422 25.2645 0.00516778 26.192C0.0667576 27.1196 0.346388 28.0195 0.821319 28.8186C1.29625 29.6178 1.95308 30.2935 2.73839 30.791C3.5237 31.2884 4.41532 31.5935 5.34075 31.6814C6.26619 31.7693 7.1993 31.6376 8.06423 31.2969C8.5681 32.5546 9.21151 33.7517 9.98238 34.8659L14.8856 31.5619L14.8429 31.508C13.5469 29.8414 12.754 27.3887 12.6193 24.9472C12.4733 22.2519 13.1291 19.5791 14.8496 18.0068C18.3962 14.9881 22.2617 16.3649 24.674 19.2579H25.3231C27.7421 16.3649 31.6121 14.9903 35.1475 18.0068C36.8657 19.5791 37.5238 22.2542 37.3778 24.9472C37.2453 27.3887 36.4524 29.8414 35.1542 31.508L35.1115 31.5619L40.0147 34.8659C40.7872 33.7519 41.4321 32.5548 41.9374 31.2969C42.7459 31.6164 43.615 31.7534 44.4826 31.6982C45.3502 31.643 46.1949 31.3969 46.9564 30.9775C47.7179 30.5581 48.3774 29.9757 48.8878 29.2719C49.3982 28.5682 49.7469 27.7604 49.909 26.9063C50.0711 26.0521 50.0426 25.1728 49.8256 24.3309C49.6085 23.4891 49.2082 22.7056 48.6534 22.0363C48.0985 21.3671 47.4027 20.8286 46.6156 20.4593C45.8286 20.0901 44.9697 19.8992 44.1003 19.9003V19.9003ZM5.79793 27.5369C5.33567 27.5369 4.89234 27.3533 4.56547 27.0264C4.23861 26.6996 4.05497 26.2562 4.05497 25.794C4.05497 25.3317 4.23861 24.8884 4.56547 24.5615C4.89234 24.2347 5.33567 24.051 5.79793 24.051C6.14623 24.0524 6.48628 24.1571 6.77498 24.352C6.78974 25.2673 6.85197 26.1811 6.9614 27.09C6.64188 27.3829 6.22467 27.5463 5.79119 27.5482L5.79793 27.5369ZM44.2059 27.5369C43.776 27.5358 43.3616 27.3758 43.0424 27.0877C43.1519 26.1789 43.2141 25.265 43.2289 24.3497C43.4908 24.1721 43.7963 24.0692 44.1124 24.0522C44.4285 24.0352 44.7432 24.1047 45.0228 24.2532C45.3023 24.4018 45.536 24.6237 45.6988 24.8952C45.8616 25.1667 45.9473 25.4774 45.9466 25.794C45.9487 26.0236 45.9053 26.2514 45.8188 26.4641C45.7324 26.6768 45.6047 26.8703 45.443 27.0334C45.2814 27.1965 45.089 27.326 44.8771 27.4143C44.6651 27.5027 44.4378 27.5482 44.2082 27.5482L44.2059 27.5369Z" fill="#00BF6F"/>
</g>
<defs>
<clipPath id="clip0_1_843">
<rect width="50" height="34.8749" fill="white"/>
</clipPath>
</defs>
</svg>

<svg xmlns="http://www.w3.org/2000/svg" width="91.429" height="64" fill="none" viewBox="0 0 50 35"><g clip-path="url(#a)"><path fill="#00BF6F" d="M44.1 19.9c-.476.002-.95.06-1.412.176A18.212 18.212 0 0 0 27.35 6.502c.054-1.72.133-3.708 2.664-5.496l-.4-1.008s-4.941 1.532-5.5 5.752c-.245-1.148-2.545-2.585-3.684-2.857l-.566.914s1.51.755 1.878 2.837A18.21 18.21 0 0 0 7.319 20.067a5.906 5.906 0 1 0 .745 11.23 18.11 18.11 0 0 0 1.918 3.569l4.904-3.304-.043-.054c-1.296-1.667-2.089-4.12-2.224-6.56-.146-2.696.51-5.369 2.23-6.941 3.547-3.019 7.413-1.642 9.825 1.25h.65c2.418-2.892 6.288-4.267 9.823-1.25 1.719 1.572 2.377 4.247 2.23 6.94-.132 2.442-.925 4.894-2.223 6.561l-.043.054 4.904 3.304a18.108 18.108 0 0 0 1.922-3.57A5.905 5.905 0 1 0 44.1 19.9ZM5.798 27.537a1.743 1.743 0 1 1 .977-3.185c.015.915.077 1.83.186 2.738-.32.293-.736.456-1.17.458l.007-.011Zm38.408 0a1.743 1.743 0 0 1-1.164-.45c.11-.908.172-1.822.187-2.737a1.74 1.74 0 0 1 2.718 1.444 1.737 1.737 0 0 1-1.739 1.754l-.002-.011Z"/></g><defs><clipPath id="a"><path fill="#fff" d="M0 0h50v34.875H0z"/></clipPath></defs></svg>
